Costumes/ghost1_.svg

<?xml version="1.0" encoding="UTF-8" standalone="no"?>
<svg
   version="1.1"
   width="119.60695"
   height="108.52573"
   id="svg21"
   sodipodi:docname="ghost1_.svg"
   xmlns:inkscape="http://www.inkscape.org/namespaces/inkscape"
   xmlns:sodipodi="http://sodipodi.sourceforge.net/DTD/sodipodi-0.dtd"
   xmlns="http://www.w3.org/2000/svg"
   xmlns:svg="http://www.w3.org/2000/svg">
  <defs
     id="defs25" />
  <sodipodi:namedview
     id="namedview23"
     pagecolor="#ffffff"
     bordercolor="#000000"
     borderopacity="0.25"
     inkscape:showpageshadow="2"
     inkscape:pageopacity="0.0"
     inkscape:pagecheckerboard="0"
     inkscape:deskcolor="#d1d1d1" />
  <!-- Exported by Scratch - http://scratch.mit.edu/ -->
  <g
     id="ID0.5242583598010242"
     transform="matrix(0.85737497,0,0,0.85737497,-4.2845977,-2.5713818)">
    <g
       id="Back_Hand">
      <path
         id="Fill_1_"
         fill="#ffffff"
         d="m 118.34,111.965 c 2.473,1.915 2.212,6.662 7.278,6.676 1.315,0.004 2.139,-1.256 3.149,-0.545 1.793,1.264 4.057,6.135 7.064,3.946 0.727,-0.521 0.741,-1.949 0.214,-2.656 -0.362,-0.485 -0.91,-0.612 -1.263,-1.054 0.516,-0.455 1.611,-0.337 2.257,-0.342 0.876,-0.008 1.899,0.004 2.628,-0.557 2.452,-1.882 -0.298,-4.451 -2.585,-4.182 -0.231,0.027 -0.408,0.135 -0.481,0.367 -0.519,1.63 -1.593,2.902 -2.735,4.137 -2.163,0.169 -4.122,-2.222 -5.999,-1.839 -3.695,2.097 -8.743,-2.976 -6.646,-6.245 1.113,3.212 3.984,4.805 5.25,3.984 3.217,-2.082 5.424,2.644 7.023,0.992 0.597,-0.61 1.168,-1.416 1.14,-2.346 -0.135,-4.24 -3.862,-2.462 -4.348,-4.515 1.069,-0.211 2.129,-0.36 3.221,-0.114 0.896,0.201 1.731,0.955 2.449,1.488 0.034,0.025 0.069,0.046 0.104,0.07 1.276,1.271 2.441,2.5 3.895,2.012 3.111,-1.049 2.025,-3.605 0,-5.146 -5.857,-4.449 -12.59,2.668 -16.709,-0.824 -0.419,-0.355 -0.811,-0.817 -1.172,-1.416 0.221,-0.407 0.461,-0.551 0.665,-0.717 v 0 c 0,0 -11.236,1.688 -6.57,8.774 0.001,0.001 0.001,0.002 0.002,0.003 0.179,-0.238 0.367,-0.467 0.579,-0.671 0.646,0.124 1.154,0.384 1.59,0.72 z" />
      <path
         id="Outline_3_"
         fill="#272525"
         d="m 144.208,107.266 c -3.638,-10.181 -14.472,-2.031 -21.024,-4.969 -0.076,0.491 -0.244,0.682 -0.445,0.846 -0.203,0.166 -0.443,0.31 -0.664,0.717 0.361,0.599 0.753,1.061 1.172,1.416 4.119,3.492 10.852,-3.625 16.709,0.824 2.025,1.541 3.111,4.1 0,5.146 -1.452,0.488 -2.617,-0.741 -3.895,-2.012 -0.035,-0.024 -0.069,-0.045 -0.104,-0.07 -0.718,-0.533 -1.554,-1.287 -2.449,-1.488 -1.092,-0.246 -2.151,-0.097 -3.221,0.114 0.483,2.053 4.213,0.274 4.348,4.515 0.028,0.93 -0.543,1.734 -1.14,2.346 -1.6,1.65 -3.807,-3.074 -7.023,-0.992 -1.266,0.818 -4.137,-0.772 -5.25,-3.984 -2.097,3.271 2.951,8.342 6.646,6.245 1.877,-0.383 4.264,1.78 6.217,0.835 1.514,-0.732 2,-1.503 2.518,-3.133 0.074,-0.232 0.252,-0.34 0.482,-0.367 2.287,-0.27 5.037,2.301 2.585,4.182 -0.729,0.561 -1.752,0.549 -2.628,0.557 -0.646,0.005 -1.741,-0.113 -2.257,0.342 0.353,0.441 0.899,0.566 1.263,1.055 0.527,0.707 0.512,2.135 -0.214,2.655 -3.009,2.188 -5.272,-2.683 -7.065,-3.946 -1.011,-0.711 -1.834,0.549 -3.148,0.545 -5.066,-0.014 -4.807,-4.761 -7.278,-6.676 -0.435,-0.336 -0.942,-0.596 -1.591,-0.716 -0.212,0.204 -0.4,0.433 -0.579,0.671 -0.452,0.604 -0.829,1.283 -1.267,1.903 6.134,1.364 3.096,7.483 7.807,8.552 1.893,0.432 4.031,0.014 5.463,-1.577 2.979,4.601 10.458,7.257 10.93,-0.995 3.52,0.689 4.648,-3.363 3.403,-6.728 2.022,-1.022 2.329,-4.056 1.699,-5.813 z" />
    </g>
    <g
       id="Body">
      <path
         id="Fill"
         fill="#ffffff"
         d="m 136.258,59.275 c -0.154,-0.948 -0.367,-1.804 -0.617,-2.596 -0.799,-1.126 -1.492,-2.348 -1.73,-4.022 -1.68,-3.263 -3.426,-6.138 -2.758,-12.146 -0.4,-10.677 -5.252,-10.633 -11.15,-14.844 -0.499,-0.356 -0.816,-0.852 -0.995,-1.375 -1.19,-2.466 -0.147,-8.049 -2.688,-11.017 C 106.959,2.33 99.968,13.42 94.542,10.285 93.288,9.562 92.322,7.781 90.779,7.628 84.7,7.03 87.137,23.614 95.882,22.822 c 1.791,-1.564 3.459,-3.517 5.607,-4.4 -3.964,5.218 -4.736,9.755 -4.316,13.654 1.272,-1.158 4.21,-4.794 5.733,-2.529 0.557,0.829 0.438,2.15 0,2.989 -1.244,2.393 -6.754,3.569 -7.166,7.39 -0.291,2.69 2.771,5.264 0.142,7.97 -3.262,3.359 -8.677,7.339 -6.979,22.889 -1.555,-0.167 -2.896,-2.813 -3.18,-4.799 -3.091,0.764 -4.947,2.068 -8.57,7.399 -0.146,-1.466 0.25,-3.024 1.062,-4.151 C 68.25,59.999 54.409,73.763 46.854,87 46.333,84.957 47.177,83.037 47.351,81.021 43.648,77.9 36.141,88.993 36.141,88.993 36.293,86.71 37.002,84.419 38.199,82.599 28.9,75.884 7.076,85.374 9.888,95.551 c 1.205,4.361 7.701,1.008 11.282,4.982 3.574,3.968 7.659,16.607 15.467,13.949 0.407,-0.142 0.814,-0.396 1.208,-0.582 -0.423,-2.34 -1.408,-4.476 -1.846,-6.812 11.061,21.26 34.716,24.346 46.903,8.044 1.104,-1.477 4.994,-0.237 4.521,1.323 -0.097,0.32 -0.213,0.627 -0.338,0.925 3.828,1.313 7.769,1.735 11.708,1.504 8.938,-1.327 18.164,-7.141 22.639,-17.352 1.698,-4.567 2.643,-13.775 2.781,-18.345 -0.165,-3.417 14.198,-10.776 12.045,-23.912 z" />
      <path
         id="Outline"
         fill="#272525"
         d="m 124.398,102.957 c 2.412,-5.312 4.002,-12.085 3.436,-18.168 2.788,-3.796 10.029,-11.326 11.121,-15.387 3.064,-11.442 -4.575,-15.519 -4.755,-24.078 -0.16,-7.57 -1.757,-20.082 -11.31,-23.207 0.443,-8.101 -9.275,-24.118 -22.396,-15.235 -6.13,4.15 -10.279,-8.681 -15.47,-1.827 -5.451,7.197 1.896,20.449 9.365,21.337 -1.022,2.951 -1.054,6.187 0,9.134 -1.42,2.715 -1.25,5.483 -0.688,8.957 -5.088,2.646 -8.059,9.264 -7.915,17.369 -1.835,1.158 -3.246,1.731 -5.021,3.812 -11.411,-8.583 -25.382,0.277 -32.071,12.119 -3.196,-1.193 -6.466,0.268 -9.011,2.574 -16.66,-9.574 -33.38,4.975 -34.553,13.615 -1.603,11.808 11.792,3.233 14.83,10.711 2.375,5.842 3.659,10.401 8.87,13.779 3.527,2.289 8.527,3.473 12.062,0.582 2.378,2.641 5.117,6.656 8.16,8.139 9.008,4.391 26.252,2.685 34.052,-4.627 0.688,-0.646 1.504,-1.425 2.263,-2.361 0.668,0.301 1.608,0.611 2.907,0.931 13.088,4.683 21.937,-0.164 28.684,-7.565 2.26,-2.479 4.284,-5.246 6.152,-8.037 0.452,-0.806 0.881,-1.669 1.288,-2.567 z m -25.604,15.928 c -3.938,0.231 -7.88,-0.189 -11.708,-1.504 0.125,-0.298 0.241,-0.604 0.338,-0.925 0.473,-1.562 -3.418,-2.8 -4.521,-1.323 -12.188,16.301 -35.842,13.215 -46.903,-8.044 0.438,2.337 1.423,4.472 1.846,6.812 -0.394,0.187 -0.801,0.441 -1.208,0.582 -7.808,2.658 -11.893,-9.98 -15.467,-13.948 C 17.59,96.559 11.094,99.914 9.889,95.553 7.076,85.374 28.9,75.884 38.199,82.6 c -1.197,1.819 -1.906,4.11 -2.058,6.395 0,0 7.507,-11.094 11.21,-7.973 -0.174,2.017 -1.018,3.937 -0.497,5.979 C 54.409,73.764 68.25,60 78.215,69.235 c -0.812,1.127 -1.21,2.685 -1.062,4.151 3.623,-5.331 5.479,-6.635 8.57,-7.399 0.284,1.986 1.625,4.632 3.18,4.799 -1.696,-15.55 3.719,-19.53 6.979,-22.889 2.629,-2.706 -0.433,-5.28 -0.142,-7.97 0.412,-3.821 5.922,-4.997 7.166,-7.39 0.438,-0.839 0.557,-2.16 0,-2.989 -1.523,-2.265 -4.461,1.371 -5.733,2.529 -0.42,-3.899 0.353,-8.436 4.316,-13.654 -2.148,0.883 -3.816,2.836 -5.607,4.4 C 87.137,23.614 84.7,7.03 90.775,7.628 c 1.543,0.153 2.509,1.934 3.763,2.657 5.428,3.135 12.417,-7.955 21.778,2.99 2.541,2.967 1.498,8.55 2.688,11.017 0.179,0.524 0.496,1.019 0.995,1.375 5.898,4.211 10.75,4.167 11.15,14.844 -0.668,6.008 1.078,8.883 2.758,12.146 0.63,1.224 1.251,2.502 1.73,4.022 0.25,0.792 0.463,1.647 0.617,2.596 2.153,13.136 -12.21,20.495 -12.044,23.915 -0.14,4.568 -1.083,13.776 -2.782,18.345 -4.47,10.209 -13.696,16.022 -22.634,17.35 z" />
    </g>
    <path
       id="Mouth"
       fill="#272525"
       d="m 128.736,67.824 c 0.662,-0.276 1.305,1.804 0.354,2.821 -3.225,3.458 -14.953,1.877 -18.77,-1.846 -0.85,-0.828 -0.764,-4.026 0.748,-3.135 3.209,1.895 10.137,5.286 17.668,2.16 z" />
    <g
       id="R_Eye">
      <path
         id="White"
         fill="#ffffff"
         d="m 130.381,58.104 c 1.354,1.22 4.346,1.426 5.793,0.361 2.592,-1.902 2.651,-9.239 0.862,-11.971 -4.374,-6.683 -12.384,6.447 -6.655,11.61 z" />
      <path
         id="Pupil"
         fill="#272525"
         d="m 136.741,50.438 c 0.608,0 1.159,0.289 1.558,0.756 0.399,0.468 0.646,1.113 0.646,1.825 0,0.712 -0.247,1.357 -0.646,1.825 -0.399,0.467 -0.95,0.756 -1.558,0.756 -0.608,0 -1.159,-0.289 -1.558,-0.756 -0.399,-0.468 -0.646,-1.113 -0.646,-1.825 0,-0.712 0.247,-1.357 0.646,-1.825 0.399,-0.467 0.95,-0.756 1.558,-0.756 z" />
      <path
         id="Outline_1_"
         fill="#272525"
         d="m 139.253,44.478 c -2.517,-4.599 -6.826,-3.944 -9.595,-1.392 -3.43,3.165 -5.159,9.792 -2.483,15.667 2.354,5.17 10.066,4.779 12.572,0 1.836,-3.5 1.413,-10.792 -0.494,-14.275 z m -3.079,13.987 c -1.447,1.065 -4.439,0.859 -5.793,-0.361 -5.729,-5.163 2.281,-18.293 6.655,-11.61 1.789,2.732 1.73,10.069 -0.862,11.971 z" />
    </g>
    <g
       id="L_Eye">
      <path
         id="White_1_"
         fill="#ffffff"
         d="m 109.152,56.698 c 1.558,1.404 5,1.641 6.668,0.415 2.979,-2.191 3.055,-10.637 0.994,-13.782 -5.037,-7.697 -14.257,7.422 -7.662,13.367 z" />
      <path
         id="Pupil_1_"
         fill="#272525"
         d="m 116.398,47.461 c 0.76,0 1.449,0.361 1.948,0.945 0.499,0.584 0.808,1.391 0.808,2.281 0,0.89 -0.309,1.697 -0.808,2.281 -0.499,0.584 -1.188,0.945 -1.948,0.945 -0.76,0 -1.449,-0.361 -1.948,-0.945 -0.499,-0.584 -0.808,-1.391 -0.808,-2.281 0,-0.89 0.309,-1.697 0.808,-2.281 0.499,-0.584 1.188,-0.945 1.948,-0.945 z" />
      <path
         id="Outline_2_"
         fill="#272525"
         d="m 119.368,41.008 c -2.899,-5.292 -7.861,-4.541 -11.054,-1.601 -3.946,3.644 -5.938,11.273 -2.854,18.037 2.712,5.954 11.588,5.502 14.476,0 2.115,-4.03 1.626,-12.425 -0.568,-16.436 z m -3.548,16.105 c -1.668,1.226 -5.11,0.989 -6.668,-0.415 -6.596,-5.945 2.625,-21.064 7.662,-13.367 2.061,3.145 1.987,11.591 -0.994,13.782 z" />
    </g>
    <g
       id="Front_Arm">
      <path
         id="Fill_2_"
         fill="#ffffff"
         d="m 75.805,92.73 c 0.821,3.511 4.055,8.637 7.521,8.803 3.619,0.172 1.816,2.423 3.689,4.98 1.209,1.649 5.455,4.848 6.668,1.573 0.84,-2.269 -0.397,-3.479 -1.562,-4.813 2.305,0.345 5.826,3.652 6.957,0.596 1.718,-4.646 -3.107,-5.954 -5.042,-6.571 2.729,-0.205 9.19,-2.881 4.397,-5.562 -2.873,-1.605 -5.972,-0.193 -8.16,1.992 -2.508,2.508 -8.252,-5.059 -6.812,-9.963 0.384,-1.307 1.812,-3.854 3.177,-5.039 0.334,-0.291 0.651,-0.379 0.912,-0.354 0.348,-1.106 -0.509,-1.979 -2.47,-2.206 -2.167,-0.25 -3.998,2.561 -3.998,2.561 h -10e-4 c -1.438,1.97 -7.123,6.123 -5.276,14.003 z" />
      <path
         id="Outline_4_"
         fill="#272525"
         d="m 99.503,97.665 c 2.718,-1.728 4.905,-5.291 2.552,-7.509 -5.029,-4.732 -10.611,-0.512 -13.72,1.14 -2.956,-2.835 -3.446,-8.205 -0.495,-11.662 0.527,-0.612 0.258,-1.209 -0.287,-1.261 -0.261,-0.025 -0.578,0.062 -0.912,0.354 -1.365,1.186 -2.793,3.733 -3.177,5.039 -1.44,4.905 4.304,12.471 6.812,9.963 2.188,-2.186 5.287,-3.598 8.16,-1.992 4.793,2.682 -1.67,5.356 -4.397,5.562 1.935,0.617 6.76,1.926 5.042,6.571 -1.131,3.058 -4.652,-0.251 -6.957,-0.597 1.164,1.336 2.4,2.547 1.562,4.814 -1.213,3.273 -5.459,0.076 -6.668,-1.574 -1.873,-2.558 -0.07,-4.809 -3.689,-4.979 -3.467,-0.166 -6.7,-5.292 -7.521,-8.804 -1.846,-7.881 3.838,-12.032 5.279,-14.004 0.197,-0.27 0.316,-0.498 0.325,-0.69 -0.466,-0.718 -1.884,0.647 -2.343,0.999 -7.9,5.984 -8.047,21.363 3.828,25.663 1.269,3.306 3.905,11.01 10.955,7.938 0.883,-0.385 2.121,-2.646 1.838,-4.797 9.253,0.909 6.428,-8.771 3.813,-10.174 z" />
    </g>
  </g>
</svg>

<svg version="1.1" width="145" height="130" xmlns="http://www.w3.org/2000/svg" xmlns:xlink="http://www.w3.org/1999/xlink">
  <!-- Exported by Scratch - http://scratch.mit.edu/ -->
  <g id="ID0.5242583598010242" transform="matrix(0.8573749661445618, 0, 0, 0.8573749661445618, -4.3, -2.5)">
    <g id="Back_Hand">
      <path id="Fill_1_" fill="#FFFFFF" d="M 118.340 111.965 C 120.813 113.880 120.552 118.627 125.618 118.641 C 126.933 118.645 127.757 117.385 128.767 118.096 C 130.560 119.360 132.824 124.231 135.831 122.042 C 136.558 121.521 136.572 120.093 136.045 119.386 C 135.683 118.901 135.135 118.774 134.782 118.332 C 135.298 117.877 136.393 117.995 137.039 117.990 C 137.915 117.982 138.938 117.994 139.667 117.433 C 142.119 115.551 139.369 112.982 137.082 113.251 C 136.851 113.278 136.674 113.386 136.601 113.618 C 136.082 115.248 135.008 116.520 133.866 117.755 C 131.703 117.924 129.744 115.533 127.867 115.916 C 124.172 118.013 119.124 112.940 121.221 109.671 C 122.334 112.883 125.205 114.476 126.471 113.655 C 129.688 111.573 131.895 116.299 133.494 114.647 C 134.091 114.037 134.662 113.231 134.634 112.301 C 134.499 108.061 130.772 109.839 130.286 107.786 C 131.355 107.575 132.415 107.426 133.507 107.672 C 134.403 107.873 135.238 108.627 135.956 109.160 C 135.990 109.185 136.025 109.206 136.060 109.230 C 137.336 110.501 138.501 111.730 139.955 111.242 C 143.066 110.193 141.980 107.637 139.955 106.096 C 134.098 101.647 127.365 108.764 123.246 105.272 C 122.827 104.917 122.435 104.455 122.074 103.856 C 122.295 103.449 122.535 103.305 122.739 103.139 L 122.739 103.139 C 122.739 103.139 111.503 104.827 116.169 111.913 C 116.170 111.914 116.170 111.915 116.171 111.916 C 116.350 111.678 116.538 111.449 116.750 111.245 C 117.396 111.369 117.904 111.629 118.340 111.965 L 118.340 111.965 Z "/>
      <path id="Outline_3_" fill="#272525" d="M 144.208 107.266 C 140.570 97.085 129.736 105.235 123.184 102.297 C 123.108 102.788 122.940 102.979 122.739 103.143 C 122.536 103.309 122.296 103.453 122.075 103.860 C 122.436 104.459 122.828 104.921 123.247 105.276 C 127.366 108.768 134.099 101.651 139.956 106.100 C 141.981 107.641 143.067 110.200 139.956 111.246 C 138.504 111.734 137.339 110.505 136.061 109.234 C 136.026 109.210 135.992 109.189 135.957 109.164 C 135.239 108.631 134.403 107.877 133.508 107.676 C 132.416 107.430 131.357 107.579 130.287 107.790 C 130.770 109.843 134.500 108.064 134.635 112.305 C 134.663 113.235 134.092 114.039 133.495 114.651 C 131.895 116.301 129.688 111.577 126.472 113.659 C 125.206 114.477 122.335 112.887 121.222 109.675 C 119.125 112.946 124.173 118.017 127.868 115.920 C 129.745 115.537 132.132 117.700 134.085 116.755 C 135.599 116.023 136.085 115.252 136.603 113.622 C 136.677 113.390 136.855 113.282 137.085 113.255 C 139.372 112.985 142.122 115.556 139.670 117.437 C 138.941 117.998 137.918 117.986 137.042 117.994 C 136.396 117.999 135.301 117.881 134.785 118.336 C 135.138 118.777 135.684 118.902 136.048 119.391 C 136.575 120.098 136.560 121.526 135.834 122.046 C 132.825 124.234 130.562 119.363 128.769 118.100 C 127.758 117.389 126.935 118.649 125.621 118.645 C 120.555 118.631 120.814 113.884 118.343 111.969 C 117.908 111.633 117.401 111.373 116.752 111.253 C 116.540 111.457 116.352 111.686 116.173 111.924 C 115.721 112.528 115.344 113.207 114.906 113.827 C 121.040 115.191 118.002 121.310 122.713 122.379 C 124.606 122.811 126.744 122.393 128.176 120.802 C 131.155 125.403 138.634 128.059 139.106 119.807 C 142.626 120.496 143.754 116.444 142.509 113.079 C 144.531 112.057 144.838 109.023 144.208 107.266 L 144.208 107.266 Z "/>
    </g>
    <g id="Body">
      <path id="Fill" fill="#FFFFFF" d="M 136.258 59.275 C 136.104 58.327 135.891 57.471 135.641 56.679 C 134.842 55.553 134.149 54.331 133.911 52.657 C 132.231 49.394 130.485 46.519 131.153 40.511 C 130.753 29.834 125.901 29.878 120.003 25.667 C 119.504 25.311 119.187 24.815 119.008 24.292 C 117.818 21.826 118.861 16.243 116.320 13.275 C 106.959 2.330 99.968 13.420 94.542 10.285 C 93.288 9.562 92.322 7.781 90.779 7.628 C 84.700 7.030 87.137 23.614 95.882 22.822 C 97.673 21.258 99.341 19.305 101.489 18.422 C 97.525 23.640 96.753 28.177 97.173 32.076 C 98.445 30.918 101.383 27.282 102.906 29.547 C 103.463 30.376 103.344 31.697 102.906 32.536 C 101.662 34.929 96.152 36.105 95.740 39.926 C 95.449 42.616 98.511 45.190 95.882 47.896 C 92.620 51.255 87.205 55.235 88.903 70.785 C 87.348 70.618 86.007 67.972 85.723 65.986 C 82.632 66.750 80.776 68.054 77.153 73.385 C 77.007 71.919 77.403 70.361 78.215 69.234 C 68.250 59.999 54.409 73.763 46.854 87 C 46.333 84.957 47.177 83.037 47.351 81.021 C 43.648 77.900 36.141 88.993 36.141 88.993 C 36.293 86.710 37.002 84.419 38.199 82.599 C 28.900 75.884 7.076 85.374 9.888 95.551 C 11.093 99.912 17.589 96.559 21.170 100.533 C 24.744 104.501 28.829 117.140 36.637 114.482 C 37.044 114.340 37.451 114.086 37.845 113.900 C 37.422 111.560 36.437 109.424 35.999 107.088 C 47.060 128.348 70.715 131.434 82.902 115.132 C 84.006 113.655 87.896 114.895 87.423 116.455 C 87.326 116.775 87.210 117.082 87.085 117.380 C 90.913 118.693 94.854 119.115 98.793 118.884 C 107.731 117.557 116.957 111.743 121.432 101.532 C 123.130 96.965 124.075 87.757 124.213 83.187 C 124.048 79.770 138.411 72.411 136.258 59.275 L 136.258 59.275 Z "/>
      <path id="Outline" fill="#272525" d="M 124.398 102.957 C 126.810 97.645 128.400 90.872 127.834 84.789 C 130.622 80.993 137.863 73.463 138.955 69.402 C 142.019 57.960 134.380 53.883 134.200 45.324 C 134.040 37.754 132.443 25.242 122.890 22.117 C 123.333 14.016 113.615 -2.001 100.494 6.882 C 94.364 11.032 90.215 -1.799 85.024 5.055 C 79.573 12.252 86.920 25.504 94.389 26.392 C 93.367 29.343 93.335 32.579 94.389 35.526 C 92.969 38.241 93.139 41.009 93.701 44.483 C 88.613 47.129 85.642 53.747 85.786 61.852 C 83.951 63.010 82.540 63.583 80.765 65.664 C 69.354 57.081 55.383 65.941 48.694 77.783 C 45.498 76.590 42.228 78.051 39.683 80.357 C 23.023 70.783 6.303 85.332 5.130 93.972 C 3.527 105.780 16.922 97.205 19.960 104.683 C 22.335 110.525 23.619 115.084 28.830 118.462 C 32.357 120.751 37.357 121.935 40.892 119.044 C 43.270 121.685 46.009 125.700 49.052 127.183 C 58.060 131.574 75.304 129.868 83.104 122.556 C 83.792 121.910 84.608 121.131 85.367 120.195 C 86.035 120.496 86.975 120.806 88.274 121.126 C 101.362 125.809 110.211 120.962 116.958 113.561 C 119.218 111.082 121.242 108.315 123.110 105.524 C 123.562 104.718 123.991 103.855 124.398 102.957 L 124.398 102.957 Z M 98.794 118.885 C 94.856 119.116 90.914 118.696 87.086 117.381 C 87.211 117.083 87.327 116.777 87.424 116.456 C 87.897 114.894 84.006 113.656 82.903 115.133 C 70.715 131.434 47.061 128.348 36 107.089 C 36.438 109.426 37.423 111.561 37.846 113.901 C 37.452 114.088 37.045 114.342 36.638 114.483 C 28.830 117.141 24.745 104.503 21.171 100.535 C 17.590 96.559 11.094 99.914 9.889 95.553 C 7.076 85.374 28.900 75.884 38.199 82.600 C 37.002 84.419 36.293 86.710 36.141 88.995 C 36.141 88.995 43.648 77.901 47.351 81.022 C 47.177 83.039 46.333 84.959 46.854 87.001 C 54.409 73.764 68.250 60 78.215 69.235 C 77.403 70.362 77.005 71.920 77.153 73.386 C 80.776 68.055 82.632 66.751 85.723 65.987 C 86.007 67.973 87.348 70.619 88.903 70.786 C 87.207 55.236 92.622 51.256 95.882 47.897 C 98.511 45.191 95.449 42.617 95.740 39.927 C 96.152 36.106 101.662 34.930 102.906 32.537 C 103.344 31.698 103.463 30.377 102.906 29.548 C 101.383 27.283 98.445 30.919 97.173 32.077 C 96.753 28.178 97.526 23.641 101.489 18.423 C 99.341 19.306 97.673 21.259 95.882 22.823 C 87.137 23.614 84.700 7.030 90.775 7.628 C 92.318 7.781 93.284 9.562 94.538 10.285 C 99.966 13.420 106.955 2.330 116.316 13.275 C 118.857 16.242 117.814 21.825 119.004 24.292 C 119.183 24.816 119.500 25.311 119.999 25.667 C 125.897 29.878 130.749 29.834 131.149 40.511 C 130.481 46.519 132.227 49.394 133.907 52.657 C 134.537 53.881 135.158 55.159 135.637 56.679 C 135.887 57.471 136.100 58.326 136.254 59.275 C 138.407 72.411 124.044 79.770 124.210 83.190 C 124.070 87.758 123.127 96.966 121.428 101.535 C 116.958 111.744 107.732 117.557 98.794 118.885 L 98.794 118.885 Z "/>
    </g>
    <path id="Mouth" fill="#272525" d="M 128.736 67.824 C 129.398 67.548 130.041 69.628 129.090 70.645 C 125.865 74.103 114.137 72.522 110.320 68.799 C 109.470 67.971 109.556 64.773 111.068 65.664 C 114.277 67.559 121.205 70.950 128.736 67.824 L 128.736 67.824 Z "/>
    <g id="R_Eye">
      <path id="White" fill="#FFFFFF" d="M 130.381 58.104 C 131.735 59.324 134.727 59.530 136.174 58.465 C 138.766 56.563 138.825 49.226 137.036 46.494 C 132.662 39.811 124.652 52.941 130.381 58.104 L 130.381 58.104 Z "/>
      <path id="Pupil" fill="#272525" d="M 136.741 50.438 C 137.349 50.438 137.900 50.727 138.299 51.194 C 138.698 51.662 138.945 52.307 138.945 53.019 C 138.945 53.731 138.698 54.376 138.299 54.844 C 137.900 55.311 137.349 55.600 136.741 55.600 C 136.133 55.600 135.582 55.311 135.183 54.844 C 134.784 54.376 134.537 53.731 134.537 53.019 C 134.537 52.307 134.784 51.662 135.183 51.194 C 135.582 50.727 136.133 50.438 136.741 50.438 Z "/>
      <path id="Outline_1_" fill="#272525" d="M 139.253 44.478 C 136.736 39.879 132.427 40.534 129.658 43.086 C 126.228 46.251 124.499 52.878 127.175 58.753 C 129.529 63.923 137.241 63.532 139.747 58.753 C 141.583 55.253 141.160 47.961 139.253 44.478 L 139.253 44.478 Z M 136.174 58.465 C 134.727 59.530 131.735 59.324 130.381 58.104 C 124.652 52.941 132.662 39.811 137.036 46.494 C 138.825 49.226 138.766 56.563 136.174 58.465 L 136.174 58.465 Z "/>
    </g>
    <g id="L_Eye">
      <path id="White_1_" fill="#FFFFFF" d="M 109.152 56.698 C 110.710 58.102 114.152 58.339 115.820 57.113 C 118.799 54.922 118.875 46.476 116.814 43.331 C 111.777 35.634 102.557 50.753 109.152 56.698 L 109.152 56.698 Z "/>
      <path id="Pupil_1_" fill="#272525" d="M 116.398 47.461 C 117.158 47.461 117.847 47.822 118.346 48.406 C 118.845 48.990 119.154 49.797 119.154 50.687 C 119.154 51.577 118.845 52.384 118.346 52.968 C 117.847 53.552 117.158 53.913 116.398 53.913 C 115.638 53.913 114.949 53.552 114.450 52.968 C 113.951 52.384 113.642 51.577 113.642 50.687 C 113.642 49.797 113.951 48.990 114.450 48.406 C 114.949 47.822 115.638 47.461 116.398 47.461 Z "/>
      <path id="Outline_2_" fill="#272525" d="M 119.368 41.008 C 116.469 35.716 111.507 36.467 108.314 39.407 C 104.368 43.051 102.376 50.680 105.460 57.444 C 108.172 63.398 117.048 62.946 119.936 57.444 C 122.051 53.414 121.562 45.019 119.368 41.008 L 119.368 41.008 Z M 115.820 57.113 C 114.152 58.339 110.710 58.102 109.152 56.698 C 102.556 50.753 111.777 35.634 116.814 43.331 C 118.875 46.476 118.801 54.922 115.820 57.113 L 115.820 57.113 Z "/>
    </g>
    <g id="Front_Arm">
      <path id="Fill_2_" fill="#FFFFFF" d="M 75.805 92.730 C 76.626 96.241 79.860 101.367 83.326 101.533 C 86.945 101.705 85.142 103.956 87.015 106.513 C 88.224 108.162 92.470 111.361 93.683 108.086 C 94.523 105.817 93.286 104.607 92.121 103.273 C 94.426 103.618 97.947 106.925 99.078 103.869 C 100.796 99.223 95.971 97.915 94.036 97.298 C 96.765 97.093 103.226 94.417 98.433 91.736 C 95.560 90.131 92.461 91.543 90.273 93.728 C 87.765 96.236 82.021 88.669 83.461 83.765 C 83.845 82.458 85.273 79.911 86.638 78.726 C 86.972 78.435 87.289 78.347 87.550 78.372 C 87.898 77.266 87.041 76.393 85.080 76.166 C 82.913 75.916 81.082 78.727 81.082 78.727 L 81.081 78.727 C 79.643 80.697 73.958 84.850 75.805 92.730 L 75.805 92.730 Z "/>
      <path id="Outline_4_" fill="#272525" d="M 99.503 97.665 C 102.221 95.937 104.408 92.374 102.055 90.156 C 97.026 85.424 91.444 89.644 88.335 91.296 C 85.379 88.461 84.889 83.091 87.840 79.634 C 88.367 79.022 88.098 78.425 87.553 78.373 C 87.292 78.348 86.975 78.435 86.641 78.727 C 85.276 79.913 83.848 82.460 83.464 83.766 C 82.024 88.671 87.768 96.237 90.276 93.729 C 92.464 91.543 95.563 90.131 98.436 91.737 C 103.229 94.419 96.766 97.093 94.039 97.299 C 95.974 97.916 100.799 99.225 99.081 103.870 C 97.950 106.928 94.429 103.619 92.124 103.273 C 93.288 104.609 94.524 105.820 93.686 108.087 C 92.473 111.360 88.227 108.163 87.018 106.513 C 85.145 103.955 86.948 101.704 83.329 101.534 C 79.862 101.368 76.629 96.242 75.808 92.730 C 73.962 84.849 79.646 80.698 81.087 78.726 C 81.284 78.456 81.403 78.228 81.412 78.036 C 80.946 77.318 79.528 78.683 79.069 79.035 C 71.169 85.019 71.022 100.398 82.897 104.698 C 84.166 108.004 86.802 115.708 93.852 112.636 C 94.735 112.251 95.973 109.990 95.690 107.839 C 104.943 108.748 102.118 99.068 99.503 97.665 L 99.503 97.665 Z "/>
    </g>
  </g>
</svg>
